X: 16610
T: Handsome Sally
R: reel
M: 4/4
K: Edorian
|:E2BE EDBE|EDBF AFDF|E2BE GBdB|1 AFDE FEED:|2 AFDE FEE2||
|:fedB ~a3e|fedA AFDB|~e3f gfef|1 dA AG FDD2:|2 dBAG FEDF||

